public/media/logo-full.svg

<svg fill="none" height="58" viewBox="0 0 154 58" width="154" xmlns="http://www.w3.org/2000/svg" xmlns:xlink="http://www.w3.org/1999/xlink"><linearGradient id="a" gradientUnits="userSpaceOnUse" x1=".425293" x2="52.3908" y1="15.1774" y2="28.3063"><stop offset="0" stop-color="#a3ec93"/><stop offset="1" stop-color="#46c4c2"/></linearGradient><path d="m49.0001 16.4301v25.1397c0 .8989-.4795 1.7295-1.258 2.1789l-21.7715 12.5699c-.7785.4494-1.7376.4494-2.516 0l-21.77133-12.5699c-.778439-.4494-1.257977-1.28-1.257977-2.1789v-25.1397c0-.8988.479538-1.7294 1.257977-2.1789l21.77133-12.56981c.7784-.44944 1.7375-.44944 2.516 0l21.7715 12.56981c.7785.4495 1.258 1.2801 1.258 2.1789z" fill="url(#a)"/><path d="m8.0238 27.6524v7.1976c0 .3946.21027.7593.55177.9569l15.56523 9.0099c.3427.1983.7652.1983 1.1078 0l15.5653-9.0099c.3415-.1976.5517-.5623.5517-.9569v-7.1976c0-.3188-.3448-.5184-.6212-.3595l-15.4986 8.9094c-.3412.1961-.7609.1961-1.1021 0l-15.49863-8.9094c-.27642-.1589-.62127.0407-.62127.3595z" fill="#fff"/><path d="m18.5619 15.457v7.2263c0 .3949.2106.7599.5526.9574l8.0426 4.6455c.2765.1597.622-.0398.622-.359v-7.1972c0-.3939-.2095-.758-.55-.9559l-8.0442-4.6756c-.2764-.1606-.623.0388-.623.3585z" fill="#fff"/><g fill="#0d4752"><path d="m68.0302 37.3552h3.1985l5.0302-13.7783h-3.4993l-3.1438 9.787-3.1439-9.787h-3.4719z"/><path d="m82.7185 37.5739c4.1827 0 7.1899-3.0072 7.1899-7.1078 0-4.1007-3.0072-7.1079-7.1899-7.1079s-7.1898 3.0072-7.1898 7.1079c0 4.1006 3.0071 7.1078 7.1898 7.1078zm0-2.9798c-2.2417 0-3.7179-1.6676-3.7179-4.128s1.4762-4.1281 3.7179-4.1281c2.2144 0 3.718 1.6677 3.718 4.1281s-1.5036 4.128-3.718 4.128z"/><path d="m97.8624 37.5739c3.4716 0 5.9596-1.7496 6.4786-4.6474l-3.362-.6835c-.328 1.4763-1.3943 2.3511-3.0072 2.3511-2.1324 0-3.5266-1.6129-3.5266-4.128s1.3942-4.1281 3.5266-4.1281c1.6129 0 2.7612.9842 3.0072 2.4331l3.362-.6561c-.464-2.9251-2.952-4.7568-6.4786-4.7568-4.128 0-6.9985 2.8978-6.9985 7.1079 0 4.21 2.8705 7.1078 6.9985 7.1078z"/><path d="m111.656 37.5739c1.722 0 3.253-.7108 3.936-1.8043v1.5856h3.445v-19.3552h-3.445v7.1078c-.793-1.0388-2.269-1.7496-3.991-1.7496-4.073 0-6.506 2.8978-6.506 7.1079 0 4.21 2.433 7.1078 6.561 7.1078zm.492-2.9798c-2.187 0-3.636-1.6403-3.636-4.128 0-2.4878 1.449-4.1281 3.636-4.1281 2.214 0 3.663 1.6403 3.663 4.1281 0 2.4877-1.449 4.128-3.663 4.128z"/><path d="m127.332 37.5739c4.183 0 7.19-3.0072 7.19-7.1078 0-4.1007-3.007-7.1079-7.19-7.1079s-7.19 3.0072-7.19 7.1079c0 4.1006 3.007 7.1078 7.19 7.1078zm0-2.9798c-2.242 0-3.718-1.6676-3.718-4.128s1.476-4.1281 3.718-4.1281c2.214 0 3.718 1.6677 3.718 4.1281s-1.504 4.128-3.718 4.128z"/><path d="m135.608 37.3552h3.444v-6.0417c0-3.0891 1.23-4.8934 3.335-4.8934 1.613 0 2.625 1.1208 2.625 2.7337v8.2014h3.444v-9.0215c0-3.0072-2.023-4.9755-5.03-4.9755-1.941 0-3.499.9568-4.374 2.2964v-2.0777h-3.444z"/><path d="m150.281 37.3552h3.445v-13.7783h-3.445z"/><circle cx="151.945" cy="20.0892" r="2.05548"/></g></svg>

<svg width="154" height="58" viewBox="0 0 154 58" fill="none" xmlns="http://www.w3.org/2000/svg">
<path d="M49.0001 16.4301V41.5698C49.0001 42.4687 48.5206 43.2993 47.7421 43.7487L25.9706 56.3186C25.1921 56.768 24.233 56.768 23.4546 56.3186L1.68327 43.7487C0.904831 43.2993 0.425293 42.4687 0.425293 41.5698V16.4301C0.425293 15.5313 0.904831 14.7007 1.68327 14.2512L23.4546 1.68139C24.233 1.23195 25.1921 1.23195 25.9706 1.68139L47.7421 14.2512C48.5206 14.7007 49.0001 15.5313 49.0001 16.4301Z" fill="url(#paint0_linear)"/>
<path d="M8.0238 27.6524V34.85C8.0238 35.2446 8.23407 35.6093 8.57557 35.8069L24.1408 44.8168C24.4835 45.0151 24.906 45.0151 25.2486 44.8168L40.8139 35.8069C41.1554 35.6093 41.3656 35.2446 41.3656 34.85V27.6524C41.3656 27.3336 41.0208 27.134 40.7444 27.2929L25.2458 36.2023C24.9046 36.3984 24.4849 36.3984 24.1437 36.2023L8.64507 27.2929C8.36865 27.134 8.0238 27.3336 8.0238 27.6524Z" fill="white"/>
<path d="M18.5619 15.457V22.6833C18.5619 23.0782 18.7725 23.4432 19.1145 23.6407L27.1571 28.2862C27.4336 28.4459 27.7791 28.2464 27.7791 27.9272V20.73C27.7791 20.3361 27.5696 19.972 27.2291 19.7741L19.1849 15.0985C18.9085 14.9379 18.5619 15.1373 18.5619 15.457Z" fill="white"/>
<path d="M68.0302 37.3552H71.2287L76.2589 23.5769H72.7596L69.6158 33.3639L66.4719 23.5769H63L68.0302 37.3552Z" fill="#0D4752"/>
<path d="M82.7185 37.5739C86.9012 37.5739 89.9084 34.5667 89.9084 30.4661C89.9084 26.3654 86.9012 23.3582 82.7185 23.3582C78.5358 23.3582 75.5287 26.3654 75.5287 30.4661C75.5287 34.5667 78.5358 37.5739 82.7185 37.5739ZM82.7185 34.5941C80.4768 34.5941 79.0006 32.9265 79.0006 30.4661C79.0006 28.0057 80.4768 26.338 82.7185 26.338C84.9329 26.338 86.4365 28.0057 86.4365 30.4661C86.4365 32.9265 84.9329 34.5941 82.7185 34.5941Z" fill="#0D4752"/>
<path d="M97.8624 37.5739C101.334 37.5739 103.822 35.8243 104.341 32.9265L100.979 32.243C100.651 33.7193 99.5847 34.5941 97.9718 34.5941C95.8394 34.5941 94.4452 32.9812 94.4452 30.4661C94.4452 27.951 95.8394 26.338 97.9718 26.338C99.5847 26.338 100.733 27.3222 100.979 28.7711L104.341 28.115C103.877 25.1899 101.389 23.3582 97.8624 23.3582C93.7344 23.3582 90.8639 26.256 90.8639 30.4661C90.8639 34.6761 93.7344 37.5739 97.8624 37.5739Z" fill="#0D4752"/>
<path d="M111.656 37.5739C113.378 37.5739 114.909 36.8631 115.592 35.7696V37.3552H119.037V18H115.592V25.1078C114.799 24.069 113.323 23.3582 111.601 23.3582C107.528 23.3582 105.095 26.256 105.095 30.4661C105.095 34.6761 107.528 37.5739 111.656 37.5739ZM112.148 34.5941C109.961 34.5941 108.512 32.9538 108.512 30.4661C108.512 27.9783 109.961 26.338 112.148 26.338C114.362 26.338 115.811 27.9783 115.811 30.4661C115.811 32.9538 114.362 34.5941 112.148 34.5941Z" fill="#0D4752"/>
<path d="M127.332 37.5739C131.515 37.5739 134.522 34.5667 134.522 30.4661C134.522 26.3654 131.515 23.3582 127.332 23.3582C123.149 23.3582 120.142 26.3654 120.142 30.4661C120.142 34.5667 123.149 37.5739 127.332 37.5739ZM127.332 34.5941C125.09 34.5941 123.614 32.9265 123.614 30.4661C123.614 28.0057 125.09 26.338 127.332 26.338C129.546 26.338 131.05 28.0057 131.05 30.4661C131.05 32.9265 129.546 34.5941 127.332 34.5941Z" fill="#0D4752"/>
<path d="M135.608 37.3552H139.052V31.3135C139.052 28.2244 140.282 26.4201 142.387 26.4201C144 26.4201 145.012 27.5409 145.012 29.1538V37.3552H148.456V28.3337C148.456 25.3265 146.433 23.3582 143.426 23.3582C141.485 23.3582 139.927 24.315 139.052 25.6546V23.5769H135.608V37.3552Z" fill="#0D4752"/>
<path d="M150.281 37.3552H153.726V23.5769H150.281V37.3552Z" fill="#0D4752"/>
<circle cx="151.945" cy="20.0892" r="2.05548" fill="#0D4752"/>
<defs>
<linearGradient id="paint0_linear" x1="0.425293" y1="15.1774" x2="52.3908" y2="28.3063" gradientUnits="userSpaceOnUse">
<stop stop-color="#A3EC93"/>
<stop offset="1" stop-color="#46C4C2"/>
</linearGradient>
</defs>
</svg>
